X: 16225
T: Greensleeves
R: jig
M: 6/8
K: Adorian
c2e c2e|d2B G2B|c2A A2A|B2G E3|
c2e c2e|d2B G2B|c2A B2G|1 A3 A2B:|2 A3 A3||
|:g3 gfe|d2B G3|g3 gfe|a2g e3|
g3 gfe|d2B G2B|c2A B2G|A3 A3:|

